X: 41888
T: Vornado, The
R: reel
M: 4/4
K: Adorian
|:A3c eA~A2|egfd eAAA|B3d fgfg|ae~e2 fdde|
A3c eA~A2|egfd eAAB|c3c dB~B2|1 (3gfe dB AEFG:|2 (3gfe dB Agag||
|:ea~a2 ea~a2|eaea gedg|edef gaba|~g2gd BGGB|
ea~a2 ea~a2|eaea gedB|c3c dB~B2|1 (3gfe dB Agag:|2 (3gfe dB AEFG||

